X:1
T:Title
%%score { ( 1 3 ) | ( 2 4 ) }
L:1/8
Q:1/4=94
M:4/4
K:C
V:1 treble nm="Grand Piano"
V:3 treble 
V:2 bass 
V:4 bass 
V:1
 c>G AG CD E2 | [G,B,G]>[G,B,G] [G,B,F][G,B,D] [G,CE][G,DF] [CEG]2 | c>G AG CDEc | B2 A2 [B,G]4 | %4
w: C.~Austin~Miles * * * * * *||||
 [B,D]>[CE] [DF][B,D] [CE][DF] [EG]2 | A>B cA [^Ge]4 | d>d cA [FA][EG][Ec][Ec] | %7
w: |||
 [Ge]2 [Fd]2 [Ec]4 | c2 c>c c c2 G |[M:7/8] ^G=G_E C [B,G]3 |[M:2/4] z G3 | z G3 | %12
w: |||||
 E/[DF]/[EG] [Ec][EB] | z [FB]3 | z F3 | z F3 | [B,D]/[CE]/[DF] [Dd][DB] | [DF] [_EA]2 [G,=EG] | %18
w: ||||||
 z G3 | z G3 | E/[DF]/[EG] [EA][EB] | z .[Fd]3 | z [_EA]3 | z [EG]3 | c e2 d- | d [Ec]3- | %26
w: ||||||||
 [Ec] z z2 |] %27
w: |
V:2
 C>G, A,G, C,D, E,2 | G,,>G,, G,,G,, C,C, C,2 | C>G, A,G, C,D,E,[G,E] | %3
 [D,G,D]2 [D,^F,C]2 [G,,G,]4 | [G,,G,]>[G,,G,] [G,,G,][G,,G,] [C,G,][C,G,] [C,C]2 | %5
 [F,CF]>[F,B,F] [F,A,F][F,A,F] [E,B,]4 | [F,A,F]>[F,A,F] [F,A,F][F,CF] [C,C][C,C][C,G,][C,G,] | %7
 [C,G,]2 [G,,G,]2 [C,G,]4 | C2 C>C C C2[K:bass] G, |[M:7/8] ^G,=G,_E, C, [G,,D,]3 | %10
[M:2/4][K:treble] z E3[K:bass] | z E3[K:bass] | [C,G,C]/[C,G,]/ [C,C]2 [C,C]- | [C,C][G,D] G,G, | %14
 z D3 | z D3 | [G,,G,][G,,G,] [G,,F,][G,,D,] | [G,,G,] [C,^F,]2 C, | z E3 | z E3[K:bass] | %20
 [C,G,C]/[C,G,]/ [C,C]2 [C,C]- | [C,C][F,A,] F,[F,CF] | F,^F, F,F, | _EG, G,G, | %24
 [G,CE] [G,CG]2[K:bass] [G,,B,F]- | [G,,B,F] [C,G,]3- | [C,G,] z z2 |] %27
V:3
 x8 | x8 | x8 | x8 | x8 | x8 | x8 | x8 | x8 |[M:7/8] x7 |[M:2/4] .G2 CC | .A2 CC | x4 | .[EA]2 DD | %14
 .F2 G,G, | .G2 G,G, | x4 | x4 | .G2 CC | .A2 CC | x4 | .[Ec]2 A,A | CC CC | AC CC | x4 | x4 | %26
 x4 |] %27
V:4
 x8 | x8 | x8 | x8 | x8 | x8 | x8 | x8 | x7[K:bass] x |[M:7/8] x7 | %10
[M:2/4][K:treble] .F2[K:bass] C,C, | .F2[K:bass] C,C, | x4 | x4 | .D2 G,,G,, | .E2 G,,G,, | x4 | %17
 x4 | .E2 C,C, | .F2[K:bass] C,C, | x4 | x4 | x4 | x4 | x3[K:bass] x | x4 | x4 |] %27

